X: 244
T: Ben Bir Altın Fenerim
C: Halil Biner
O: Turkey
F: http://compmusic.upf.edu/node/140
N: karcigar--turku--semai--ben_bir--urfa
N: makam= karcigar
N: form= turku
N: usul= semai = 3/4
M: 3/4
L: 1/16
K: C _2/4B _3/4e ^3/4f 
Q: 1/4=76
%%MIDI tuningsystem comma53
f2g2 a2_b2 a2g2  | a3c' c'a2g gfga  | \
w:  Ben  bir  al  |  tın  *  fe *  *  ne  | 
g3/2f/ed d/e/d/c/de dcd2  | 
w:  *  *  *  *  rim    | 
f2g2 a2_b2 a2g2  | a3c' c'a2g gfga  | \
w:  Ben  bir  al  |  tın  *  fe *  *  ne  | 
g3/2f/ed d/e/d/c/de dcd2  | 
w:  *  *  *  *  rim    | 
a2ga fga2 _baga  | gfeg fedf edc2  | 
w:  Ya *  *  *  *  na  ya  |  *  *  *  *  *  *  *  *  *  *  na   | 
d3=f f=e2d dccB  | cBBA A8  | a2ga fga2 _baga  | 
w:  dö *  ne  |  *  *  *  *  rim    |  Ya *  *  *  *  na  ya  | 
gfeg fedf edc2  | d3=f f=e2d dccB  | \
w:  *  *  *  *  *  *  *  *  *  *  na   |  dö *  ne  | 
cBBA A8  | 
w:  *  *  *  *  rim    | 
f2g2 a2_b2 a2g2  | a3c' c'a2g gfga  | \
w:  Er bâ bı  |  na  *  düş *  *  me  | 
g3/2f/ed d/e/d/c/de dcd2  | 
w:  *  *  *  *  dim    | 
f2g2 a2_b2 a2g2  | a3c' c'a2g gfga  | \
w:  Er bâ bı  |  na  *  düş *  *  me  | 
g3/2f/ed d/e/d/c/de dcd2  | 
w:  *  *  *  *  dim    | 
a2ga fga2 _baga  | gfeg fedf edc2  | 
w:  Hâ *  *  *  *  lâ  o  |  *  *  *  *  *  *  *  *  *  *  na   | 
d3=f f=e2d dccB  | cBBA A8  | a2ga fga2 _baga  | 
w:  ya na  |  *  *  *  *  rım    |  Hâ *  *  *  *  lâ  o  | 
gfeg fedf edc2  | d3=f f=e2d dccB  | \
w:  *  *  *  *  *  *  *  *  *  *  na   |  ya na  | 
cBBA A8  | 
w:  *  *  *  *  rım    | 
f2g2 a2_b2 a2g2  | a3c' c'a2g gfga  | \
w:  Ben  bir  al  |  tın  *  fe *  *  ne  | 
g3/2f/ed d/e/d/c/de dcd2  | 
w:  *  *  *  *  rim    | 
f2g2 a2_b2 a2g2  | a3c' c'a2g gfga  | \
w:  Ben  bir  al  |  tın  *  fe *  *  ne  | 
g3/2f/ed d/e/d/c/de dcd2  | 
w:  *  *  *  *  rim    | 
a2ga fga2 _baga  | gfeg fedf edc2  | 
w:  Ya *  *  *  *  na  ya  |  *  *  *  *  *  *  *  *  *  *  na   | 
d3=f f=e2d dccB  | cBBA A8  | a2ga fga2 _baga  | 
w:  dö *  ne  |  *  *  *  *  rim    |  Ya *  *  *  *  na  ya  | 
gfeg fedf edc2  | d3=f f=e2d dccB  | \
w:  *  *  *  *  *  *  *  *  *  *  na   |  dö *  ne  | 
cBBA A8  | 
w:  *  *  *  *  rim    | 
f2g2 a2_b2 a2g2  | a3c' c'a2g gfga  | \
w:  Er bâ bı  |  na  *  düş *  *  me  | 
g3/2f/ed d/e/d/c/de dcd2  | 
w:  *  *  *  *  dim    | 
f2g2 a2_b2 a2g2  | a3c' c'a2g gfga  | \
w:  Er bâ bı  |  na  *  düş *  *  me  | 
g3/2f/ed d/e/d/c/de dcd2  | 
w:  *  *  *  *  dim    | 
a2ga fga2 _baga  | gfeg fedf edc2  | 
w:  Hâ *  *  *  *  lâ  o  |  *  *  *  *  *  *  *  *  *  *  na   | 
d3=f f=e2d dccB  | cBBA A8  | a2ga fga2 _baga  | 
w:  ya na  |  *  *  *  *  rım    |  Hâ *  *  *  *  lâ  o  | 
gfeg fedf edc2  | d3=f f=e2d dccB  | \
w:  *  *  *  *  *  *  *  *  *  *  na   |  ya na  | 
cBBA A8  | 
w:  *  *  *  *  rım    | 
|


